64x64/apps/tizen-studio-certificatemanager.svg

<svg xmlns="http://www.w3.org/2000/svg" width="64" height="64" version="1.1">
 <rect style="opacity:0.2" width="56" height="56" x="4" y="5" rx="2.8" ry="2.8"/>
 <path style="fill:#00a1f1" d="m 6.8,4 43.833395,6.566604 c 1.5512,0 2.8,1.2488 2.8,2.800001 L 60,57.2 C 60,58.7512 58.7512,60 57.2,60 H 6.8 C 5.2488,60 4,58.7512 4,57.2 V 6.8 C 4,5.2488 5.2488,4 6.8,4 Z"/>
 <path style="fill:#008aee" d="M 6.8,4 C 6.0244,4 5.3236782,4.3114782 4.8175782,4.8175782 L 59.182422,59.182422 C 59.688522,58.676322 60,57.9756 60,57.2 V 6.8 C 60,5.2488 58.7512,4 57.2,4 Z"/>
 <path style="opacity:0.2" d="m 33.578125,13.000391 -1.8125,1.443359 -1.865234,-1.375 -1.375,1.861329 -2.160157,-0.84375 -0.847656,2.15625 -2.302734,-0.259766 -0.259766,2.302734 -2.291016,0.347656 0.34375,2.294922 -2.125,0.925782 0.929688,2.125 -1.8125,1.443359 1.443359,1.8125 -1.375,1.865234 1.861329,1.375 -0.84375,2.160157 2.15625,0.847656 -0.259766,2.302734 2.302734,0.259766 0.347656,2.291016 2.294922,-0.34375 0.925782,2.125 2.125,-0.929688 1.443359,1.8125 1.8125,-1.443359 1.865234,1.375 1.375,-1.861329 2.160157,0.84375 0.847656,-2.15625 2.302734,0.259766 0.259766,-2.302734 2.291016,-0.347656 -0.34375,-2.294922 2.125,-0.925782 -0.929688,-2.125 1.8125,-1.443359 -1.443359,-1.8125 1.375,-1.865234 -1.861329,-1.375 0.84375,-2.160157 -2.15625,-0.847656 0.259766,-2.302734 -2.302734,-0.259766 -0.347656,-2.291016 -2.294922,0.34375 -0.925782,-2.125 -2.125,0.929688 z m -1.578125,7 a 7,7 0 0 1 7,7 7,7 0 0 1 -7,7 7,7 0 0 1 -7,-7 7,7 0 0 1 7,-7 z M 25.074219,39.736719 25,39.748438 V 52.6 L 32,47.000391 39,52.6 V 40.473047 l -0.572266,1.455078 -2.46289,-0.96289 -1.570313,2.125 -2.126953,-1.570313 -2.066406,1.648438 -1.646484,-2.066407 -2.425782,1.058594 z"/>
 <path style="fill:#f4f4f7" d="M 33.578125 12 L 31.765625 13.443359 L 29.900391 12.068359 L 28.525391 13.929688 L 26.365234 13.085938 L 25.517578 15.242188 L 23.214844 14.982422 L 22.955078 17.285156 L 20.664062 17.632812 L 21.007812 19.927734 L 18.882812 20.853516 L 19.8125 22.978516 L 18 24.421875 L 19.443359 26.234375 L 18.068359 28.099609 L 19.929688 29.474609 L 19.085938 31.634766 L 21.242188 32.482422 L 20.982422 34.785156 L 23.285156 35.044922 L 23.632812 37.335938 L 25.927734 36.992188 L 26.853516 39.117188 L 28.978516 38.1875 L 30.421875 40 L 32.234375 38.556641 L 34.099609 39.931641 L 35.474609 38.070312 L 37.634766 38.914062 L 38.482422 36.757812 L 40.785156 37.017578 L 41.044922 34.714844 L 43.335938 34.367188 L 42.992188 32.072266 L 45.117188 31.146484 L 44.1875 29.021484 L 46 27.578125 L 44.556641 25.765625 L 45.931641 23.900391 L 44.070312 22.525391 L 44.914062 20.365234 L 42.757812 19.517578 L 43.017578 17.214844 L 40.714844 16.955078 L 40.367188 14.664062 L 38.072266 15.007812 L 37.146484 12.882812 L 35.021484 13.8125 L 33.578125 12 z M 32 19 A 7 7 0 0 1 39 26 A 7 7 0 0 1 32 33 A 7 7 0 0 1 25 26 A 7 7 0 0 1 32 19 z M 25.074219 38.736328 L 25 38.748047 L 25 51.599609 L 32 46 L 39 51.599609 L 39 39.472656 L 38.427734 40.927734 L 35.964844 39.964844 L 34.394531 42.089844 L 32.267578 40.519531 L 30.201172 42.167969 L 28.554688 40.101562 L 26.128906 41.160156 L 25.074219 38.736328 z"/>
 <path style="opacity:0.1;fill:#f4f4f7" d="M 6.8007812 4 C 5.2495813 4 4 5.2495813 4 6.8007812 L 4 7.8007812 C 4 6.2495813 5.2495813 5 6.8007812 5 L 57.199219 5 C 58.750419 5 60 6.2495813 60 7.8007812 L 60 6.8007812 C 60 5.2495813 58.750419 4 57.199219 4 L 6.8007812 4 z"/>
</svg>

<svg xmlns="http://www.w3.org/2000/svg" width="64" height="64"><rect style="opacity:.2" width="56" height="56" x="4" y="5" rx="2.8" ry="2.8"/><path style="fill:#00a1f1" d="m6.8 4 43.833 6.567c1.552 0 2.8 1.248 2.8 2.8L60 57.2c0 1.551-1.249 2.8-2.8 2.8H6.8A2.794 2.794 0 0 1 4 57.2V6.8C4 5.249 5.249 4 6.8 4z"/><path style="fill:#008aee" d="M6.8 4c-.776 0-1.476.311-1.982.818l54.364 54.364A2.792 2.792 0 0 0 60 57.2V6.8C60 5.249 58.751 4 57.2 4z"/><path style="opacity:.2" d="m33.578 13-1.812 1.444-1.866-1.375-1.375 1.861-2.16-.844-.847 2.157-2.303-.26-.26 2.303-2.29.347.343 2.295-2.125.926.93 2.125L18 25.422l1.443 1.813-1.375 1.865 1.862 1.375-.844 2.16 2.156.848-.26 2.303 2.303.26.348 2.29 2.295-.343.926 2.125 2.125-.93L30.422 41l1.812-1.443 1.866 1.375 1.375-1.861 2.16.843.847-2.156 2.303.26.26-2.303 2.29-.347-.343-2.295 2.125-.926-.93-2.125L46 28.579l-1.443-1.813 1.375-1.865-1.862-1.375.844-2.16-2.156-.848.26-2.303-2.303-.26-.348-2.29-2.295.343-.926-2.125-2.125.93zM32 20a7 7 0 0 1 7 7 7 7 0 0 1-7 7 7 7 0 0 1-7-7 7 7 0 0 1 7-7zm-6.926 19.737-.074.011V52.6l7-5.6 7 5.6V40.473l-.572 1.455-2.463-.963-1.57 2.125-2.127-1.57-2.067 1.648-1.646-2.066-2.426 1.059z"/><path style="fill:#f4f4f7" d="m33.578 12-1.812 1.443-1.866-1.375-1.375 1.862-2.16-.844-.847 2.156-2.303-.26-.26 2.303-2.29.348.343 2.295-2.125.926.93 2.125L18 24.422l1.443 1.812-1.375 1.866 1.862 1.375-.844 2.16 2.156.847-.26 2.303 2.303.26.348 2.29 2.295-.343.926 2.125 2.125-.93L30.422 40l1.812-1.443 1.866 1.375 1.375-1.862 2.16.844.847-2.156 2.303.26.26-2.303 2.29-.348-.343-2.295 2.125-.926-.93-2.125L46 27.578l-1.443-1.812 1.375-1.866-1.862-1.375.844-2.16-2.156-.847.26-2.303-2.303-.26-.348-2.29-2.295.343-.926-2.125-2.125.93L33.578 12zM32 19a7 7 0 0 1 7 7 7 7 0 0 1-7 7 7 7 0 0 1-7-7 7 7 0 0 1 7-7zm-6.926 19.736-.074.012V51.6l7-5.6 7 5.6V39.473l-.572 1.455-2.463-.963-1.57 2.125-2.127-1.57-2.067 1.648-1.646-2.066-2.426 1.058-1.055-2.424z"/><path style="opacity:.1;fill:#f4f4f7" d="M6.8 4C5.25 4 4 5.25 4 6.8v1C4 6.25 5.25 5 6.8 5h50.4C58.75 5 60 6.25 60 7.8v-1C60 5.25 58.75 4 57.2 4H6.8z"/></svg>
